X:173
T:Follow Me Down to Galway
D:Mike & Mary Rafferty, The Old Fireside Music (1998)
Z:Nigel Gatherer
M:4/4
L:1/8
K:Am
A2 BG A2 Bd|e2 dg eAAD|G2 GD G2 AB|cABA GEDE|A2 BG A2 Bd|egdg eaae|
gedB c2 (3Bcd|egdB BA A2::abae abae|gaba gede|g2 gd g2 (3Bcd|
gaba ge d2|abae abae|gaba gede|gedB c2 (3Bcd|egdB BA A2:|
<end>
<start>
